X:1
T:Title
%%score { ( 1 3 ) | ( 2 4 ) }
L:1/8
M:4/4
K:D
V:1 treble nm="Grand Piano"
V:3 treble 
V:2 bass 
V:4 bass 
V:1
 z4 z2[Q:1/4=100] [Fd]>[Fc] | [FB]2 [FA]2 [A,DF]2 [A,CF]>[K:bass][G,CE] | %2
 [F,D]2 [G,B,D]2 [F,A,D]2 z2 | z2[K:treble] [A,F]2 z z/ E/ F>G |[M:3/4] A6 |[M:1/4] [Fd]>[Fc] | %6
[M:4/4] [FB]2 [FA]2 [DF]2 [CF]>[CE] | D2 D2 D2 F2 | E2 d2 F2 ^G2 |[M:3/4] [A,CA]6 |[M:1/4] B>A | %11
[M:4/4] G6 z2 | A6 z2 | [DGB]2 [DAc]2 [DBd]2 [DGB]2 |[M:3/4] A6 |[M:1/4] [A,DF]>[A,EG] | %16
[M:4/4] [DFA]2 [Fd]>[Fc] e>d [FA]>F | E2 B>^A c>B G>E | %18
 A2 A2 [^GB]2 [=Gc]2[Q:1/4=99][Q:1/4=97][Q:1/4=96][Q:1/4=94][Q:1/4=93][Q:1/4=91][Q:1/4=90][Q:1/4=88][Q:1/4=87][Q:1/4=85][Q:1/4=84][Q:1/4=82][Q:1/4=81][Q:1/4=79][Q:1/4=78][Q:1/4=76] | %19
[M:7/8] d2- [Gd-]>[Gd-] [Fd]3 |] %20
V:2
 z4 z2 [D,A,]>[D,A,] | [D,D]2 [D,D]2 D,2 A,,>A,, | D,2 D,2 D,2[K:treble] F>G | A6[K:bass] z2 | %4
[M:3/4] z z/ [D,D]/ [D,D]>[D,D] [D,D]2 |[M:1/4] [D,A,]>[D,A,] | %6
[M:4/4] [D,D]2 [D,D]2 [D,A,]2 [A,,A,]>[A,,G,] | [D,F,]2 [D,G,B,]2 [D,F,A,]2 [D,A,D]2 | %8
 [E,A,C]2 [E,^G,E]2 [E,A,D]2 [E,B,D]2 |[M:3/4] A,,6 |[M:1/4][K:treble] G>F |[M:4/4] E6 A2 | %12
 D,2 E,2 F,2 [D,A,]>F, | G,2 G,2 G,2 G,2 |[M:3/4] D,2 A,,>A,, D,2 |[M:1/4] D,>D, | %16
[M:4/4] D,2 [D,A,]>[D,A,] [D,A,]2 z z/[K:treble] D/ | [G,B,]2 [G,DG]2 [G,DG]2 [G,B,E]2 | %18
 [A,DF]2[K:bass] [F,D]2 [E,D]2 [A,,A,]2 |[M:7/8] A,2 z z z z2 |] %20
V:3
 x8 | x15/2[K:bass] x/ | x8 | z4[K:treble] [CG]2 z2 |[M:3/4] z z/ F/ F>F F2 |[M:1/4] x2 | %6
[M:4/4] x8 | x8 | x8 |[M:3/4] x6 |[M:1/4] x2 |[M:4/4] z2 C>C C2 c>B | %12
 [DF]2 [CG]2 [DF]2 [Fd]>[DAc] | x8 |[M:3/4] [DF]2 [CG]>[CG] [DF]2 |[M:1/4] x2 |[M:4/4] z4 F2 z2 | %17
 x8 | x8 |[M:7/8] F2 z z z z2 |] %20
V:4
 x8 | x8 | x6[K:treble] x2 | z2[K:bass] D,2 A,,2 z2 |[M:3/4] x6 |[M:1/4] x2 |[M:4/4] x8 | x8 | x8 | %9
[M:3/4] x6 |[M:1/4][K:treble] x2 |[M:4/4] z2 A,>A, A,2 [A,C]->[A,CG] | x8 | x8 |[M:3/4] x6 | %15
[M:1/4] x2 |[M:4/4] z4 z2 [D,A,]2[K:treble] | x8 | x2[K:bass] x6 | %19
[M:7/8] D,2- [D,-B,]>[D,-B,] [D,A,]3 |] %20

